X: 19410
T: Jackie Donnan's
R: mazurka
M: 3/4
K: Gmajor
|:GA|B2 B2 AG|A2 d2 dc|AB BA GB|AB G2 GA|
B2 B2 AG|A2 d2 dc|A2 G2 F2|G2 G2:|
ef|g2 fedf|e2 d2 dc|AB BA GB|AB G2 ef|
g2 fedf|e2 a2 ag|e2 a2 a2|a2 a2 ef|
g2 fedf|e2 d2 dc|AB BA GB|AB G2 GA|
B2 B2 AG|A2 d2 dc|A2 G2 F2|G2 G2||

